X:107
T:GSPJOAN- Gossip Joan
S:Single sheet issue
Q:1/4=100
L:1/4
M:C|
K:G
d|gGBc|d3(c/B/)|cADc|cBzg|dd(dc/B/)|ccdD|cccB/A/|BBBD|AAAG/F/|\
G3g|dgdg|(a/g/f/e/ d)c|B2A2|G3|]

